assets/images/member/vip.svg

<svg height="12" viewBox="0 0 14 12" width="14" xmlns="http://www.w3.org/2000/svg"><path d="m1119.98789 100 4.99502 9.016-1.67779 2.611257c-.061.094895-.137.177962-.22451.245805l-.09123.062642c-.42569.257353-.96245.135546-1.24991-.26565l-.06174-.097497-5.60696-10.070734c-.08488-.152452-.12958-.325572-.12958-.501823 0-.512836.37047-.935507.84774-.993272l.11192-.006728zm8.99354 0c.19018 0 .37607.058881.53407.169168.4089.285405.53972.841366.32017 1.286718l-.05692.100637-2.40245 3.735477-2.93176-5.292z" fill="#a56b3b" fill-rule="evenodd" transform="translate(-1116 -100)"/></svg>

<?xml version="1.0" encoding="UTF-8"?>
<svg width="14px" height="12px" viewBox="0 0 14 12" version="1.1" xmlns="http://www.w3.org/2000/svg" xmlns:xlink="http://www.w3.org/1999/xlink">
    <title>切图</title>
    <g id="会员" stroke="none" stroke-width="1" fill="none" fill-rule="evenodd">
        <g id="切图" transform="translate(-1116.000000, -100.000000)" fill="#A56B3B">
            <path d="M1119.98789,100 L1124.98291,109.016 L1123.30512,111.627257 C1123.24412,111.722152 1123.16812,111.805219 1123.08061,111.873062 L1122.98938,111.935704 C1122.56369,112.193057 1122.02693,112.07125 1121.73947,111.670054 L1121.67773,111.572557 L1116.07077,101.501823 C1115.98589,101.349371 1115.94119,101.176251 1115.94119,101 C1115.94119,100.487164 1116.31166,100.064493 1116.78893,100.006728 L1116.90085,100 L1119.98789,100 Z M1128.98143,100 C1129.17161,100 1129.3575,100.058881 1129.5155,100.169168 C1129.9244,100.454573 1130.05522,101.010534 1129.83567,101.455886 L1129.77875,101.556523 L1127.3763,105.292 L1124.44454,100 L1128.98143,100 Z" id="形状"></path>
        </g>
    </g>
</svg>
